images/perils-of-rebasing-1.svg

<?xml version="1.0"?>
<svg xmlns="http://www.w3.org/2000/svg" xmlns:xlink="http://www.w3.org/1999/xlink" width="566px" height="335px" viewBox="0 0 566 335" version="1.1">
    <!-- Generator: Sketch 56.3 (81716) - https://sketch.com -->
    <title>images/perils-of-rebasing-1</title>
    <desc>Created with Sketch.</desc>
    <g id="03---Perils-of-Rebase-1" stroke="none" stroke-width="1" fill="none" fill-rule="evenodd">
        <rect id="Rectangle-10" stroke="#8F8981" stroke-linecap="square" x="16" y="17" width="535" height="111"/>
        <rect id="Rectangle-11" stroke="#8F8981" stroke-linecap="square" x="16" y="158" width="535" height="158"/>
        <g id="brown" transform="translate(46.000000, 67.000000)">
            <rect id="Rectangle-1" fill="#EFEFE7" fill-rule="evenodd" x="0" y="0" width="89" height="33" rx="16.5"/>
            <text stroke="none" font-family="Source Code Pro" font-size="12px" font-weight="900" fill="#979797" fill-opacity="1" text-anchor="middle" id="C6">
                <tspan fill="#808080" x="44.5" y="21" fill-opacity="1">C1</tspan>
            </text>
        </g>
        <path id="Line-2" d="M145,83 L183,83 L183,84 L145,84 L145,88 L136,83.5 L145,79 L145,83 Z" fill="#8F8981" fill-rule="nonzero"/>
        <g id="ref" transform="translate(173.000000, 67.000000)">
            <rect id="Rectangle-2" fill="#F44D27" fill-rule="evenodd" x="0" y="0" width="106" height="33"/>
            <text stroke="none" font-family="Source Code Pro" font-size="12px" font-weight="900" fill="#979797" fill-opacity="1" text-anchor="middle" id="master">
                <tspan fill="#f0f0f0" x="53" y="20" fill-opacity="1">master</tspan>
            </text>
        </g>
        <g id="brown" transform="translate(44.000000, 211.000000)">
            <rect id="Rectangle-1" fill="#EFEFE7" fill-rule="evenodd" x="0" y="0" width="89" height="33" rx="16.5"/>
            <text stroke="none" font-family="Source Code Pro" font-size="12px" font-weight="900" fill="#979797" fill-opacity="1" text-anchor="middle" id="C6">
                <tspan fill="#808080" x="44.5" y="21" fill-opacity="1">C1</tspan>
            </text>
        </g>
        <path id="Line-3" d="M136.635806,244.145457 L172.199213,270.394639 L171.605361,271.199213 L136.041954,244.950032 L133.666544,248.168328 L129.097713,239.203074 L139.011215,240.927161 L136.635806,244.145457 Z" fill="#8F8981" fill-rule="nonzero"/>
        <g id="brown" transform="translate(161.000000, 262.000000)">
            <rect id="Rectangle-1" fill="#EFEFE7" fill-rule="evenodd" x="0" y="0" width="89" height="33" rx="16.5"/>
            <text stroke="none" font-family="Source Code Pro" font-size="12px" font-weight="900" fill="#979797" fill-opacity="1" text-anchor="middle" id="C6">
                <tspan fill="#808080" x="44.5" y="21" fill-opacity="1">C2</tspan>
            </text>
        </g>
        <path id="Line-4" d="M259,278 L298,278 L298,279 L259,279 L259,283 L250,278.5 L259,274 L259,278 Z" fill="#8F8981" fill-rule="nonzero"/>
        <g id="brown" transform="translate(278.000000, 262.000000)">
            <rect id="Rectangle-1" fill="#EFEFE7" fill-rule="evenodd" x="0" y="0" width="89" height="33" rx="16.5"/>
            <text stroke="none" font-family="Source Code Pro" font-size="12px" font-weight="900" fill="#979797" fill-opacity="1" text-anchor="middle" id="C6">
                <tspan fill="#808080" x="44.5" y="21" fill-opacity="1">C3</tspan>
            </text>
        </g>
        <g id="Line-5-+-ref-2" transform="translate(369.000000, 262.000000)">
            <path id="Line-5" d="M9,16 L48,16 L48,17 L9,17 L9,21 L0,16.5 L9,12 L9,16 Z" fill="#8F8981" fill-rule="nonzero"/>
            <g id="ref" transform="translate(33.000000, 0.000000)">
                <rect id="Rectangle-2" fill="#F44D27" fill-rule="evenodd" x="0" y="0" width="106" height="33"/>
                <text stroke="none" font-family="Source Code Pro" font-size="12px" font-weight="900" fill="#979797" fill-opacity="1" text-anchor="middle" id="master">
                    <tspan fill="#f0f0f0" x="53" y="20" fill-opacity="1">master</tspan>
                </text>
            </g>
        </g>
        <g id="Line-6-+-ref-3" transform="translate(133.000000, 211.000000)">
            <path id="Line-6" d="M9,16 L47,16 L47,17 L9,17 L9,21 L0,16.5 L9,12 L9,16 Z" fill="#8F8981" fill-rule="nonzero"/>
            <g id="ref-3" transform="translate(38.000000, 0.000000)">
                <rect id="Rectangle-2" fill="#F44D27" x="0" y="0" width="111" height="33"/>
                <text stroke="none" font-family="Source Code Pro" font-size="12px" font-weight="900" fill="#979797" fill-opacity="1" text-anchor="middle" id="master">
                    <tspan fill="#f0f0f0" x="55.5" y="20" fill-opacity="1">teamone/master</tspan>
                </text>
            </g>
        </g>
        <text stroke="none" font-family="Source Code Pro" font-size="12px" font-weight="900" fill="#979797" fill-opacity="1" text-anchor="middle" id="My-Computer">
            <tspan fill="#f0f0f0" x="267.5" y="179" fill-opacity="1">My Computer</tspan>
        </text>
        <text stroke="none" font-family="Source Code Pro" font-size="12px" font-weight="900" fill="#979797" fill-opacity="1" text-anchor="middle" id="git.team1.ourcompany">
            <tspan fill="#f0f0f0" x="267.5" y="36" fill-opacity="1">git.team1.ourcompany.com</tspan>
        </text>
    </g>
</svg>

<?xml version="1.0" encoding="UTF-8"?>
<svg id="svg10299" version="1.1" viewBox="0 0 566 335" xmlns="http://www.w3.org/2000/svg" xmlns:cc="http://creativecommons.org/ns#" xmlns:dc="http://purl.org/dc/elements/1.1/" xmlns:rdf="http://www.w3.org/1999/02/22-rdf-syntax-ns#">
 <metadata id="metadata10305">
  <rdf:RDF>
   <cc:Work rdf:about="">
    <dc:format>image/svg+xml</dc:format>
    <dc:type rdf:resource="http://purl.org/dc/dcmitype/StillImage"/>
    <dc:title>images/perils-of-rebasing-1</dc:title>
   </cc:Work>
  </rdf:RDF>
 </metadata>
 <!-- Generator: Sketch 56.3 (81716) - https://sketch.com -->
 <title id="title10230">images/perils-of-rebasing-1</title>
 <desc id="desc10232">Created with Sketch.</desc>
 <g id="03---Perils-of-Rebase-1" fill="none" fill-rule="evenodd">
  <rect id="Rectangle-10" x="16" y="17" width="535" height="111" stroke="#8F8981" stroke-linecap="square"/>
  <rect id="Rectangle-11" x="16" y="158" width="535" height="158" stroke="#8F8981" stroke-linecap="square"/>
  <g id="brown" transform="translate(46 67)">
   <rect id="Rectangle-1" width="89" height="33" rx="16.5" fill="#EFEFE7" fill-rule="evenodd"/>
   <text id="C6" fill="#979797" font-family="Source Code Pro" font-size="12px" font-weight="700" text-anchor="middle"><tspan id="tspan10237" x="44.5" y="21" fill="#808080">C1</tspan></text>
  </g>
  <path id="Line-2" d="m145 83h38v1h-38v4l-9-4.5 9-4.5v4z" fill="#8F8981" fill-rule="nonzero"/>
  <g id="ref" transform="translate(173 67)">
   <rect id="Rectangle-2" width="106" height="33" fill="#F44D27" fill-rule="evenodd"/>
   <text id="master" fill="#979797" font-family="Source Code Pro" font-size="12px" font-weight="700" text-anchor="middle"><tspan id="tspan10243" x="53" y="20" fill="#f0f0f0">master</tspan></text>
  </g>
  <g id="g10253" transform="translate(44 211)">
   <rect id="rect10247" width="89" height="33" rx="16.5" fill="#EFEFE7" fill-rule="evenodd"/>
   <text id="text10251" fill="#979797" font-family="Source Code Pro" font-size="12px" font-weight="700" text-anchor="middle"><tspan id="tspan10249" x="44.5" y="21" fill="#808080">C1</tspan></text>
  </g>
  <path id="Line-3" d="m136.64 244.15 35.563 26.249-.59385.80457-35.563-26.249-2.3754 3.2183-4.5688-8.9653 9.9135 1.7241-2.3754 3.2183z" fill="#8F8981" fill-rule="nonzero"/>
  <g id="g10262" transform="translate(161 262)">
   <rect id="rect10256" width="89" height="33" rx="16.5" fill="#EFEFE7" fill-rule="evenodd"/>
   <text id="text10260" fill="#979797" font-family="Source Code Pro" font-size="12px" font-weight="700" text-anchor="middle"><tspan id="tspan10258" x="44.5" y="21" fill="#808080">C2</tspan></text>
  </g>
  <path id="Line-4" d="m259 278h39v1h-39v4l-9-4.5 9-4.5v4z" fill="#8F8981" fill-rule="nonzero"/>
  <g id="g10271" transform="translate(278 262)">
   <rect id="rect10265" width="89" height="33" rx="16.5" fill="#EFEFE7" fill-rule="evenodd"/>
   <text id="text10269" fill="#979797" font-family="Source Code Pro" font-size="12px" font-weight="700" text-anchor="middle"><tspan id="tspan10267" x="44.5" y="21" fill="#808080">C3</tspan></text>
  </g>
  <g id="Line-5-+-ref-2" transform="translate(369 262)">
   <path id="Line-5" d="m9 16h39v1h-39v4l-9-4.5 9-4.5v4z" fill="#8F8981" fill-rule="nonzero"/>
   <g id="g10280" transform="translate(33)">
    <rect id="rect10274" width="106" height="33" fill="#F44D27" fill-rule="evenodd"/>
    <text id="text10278" fill="#979797" font-family="Source Code Pro" font-size="12px" font-weight="700" text-anchor="middle"><tspan id="tspan10276" x="53" y="20" fill="#f0f0f0">master</tspan></text>
   </g>
  </g>
  <g id="Line-6-+-ref-3" transform="translate(133 211)">
   <path id="Line-6" d="m9 16h38v1h-38v4l-9-4.5 9-4.5v4z" fill="#8F8981" fill-rule="nonzero"/>
   <g id="ref-3" transform="translate(38)">
    <rect id="rect10284" width="111" height="33" fill="#F44D27"/>
    <text id="text10288" fill="#979797" font-family="Source Code Pro" font-size="12px" font-weight="700" text-anchor="middle"><tspan id="tspan10286" x="55.5" y="20" fill="#f0f0f0">teamone/master</tspan></text>
   </g>
  </g>
  <text id="My-Computer" fill="#979797" font-family="Source Code Pro" font-size="12px" font-weight="700" text-anchor="middle" style="fill:#404040"><tspan id="tspan10292" x="267.5" y="179" fill="#f0f0f0" style="fill:#404040">My Computer</tspan></text>
  <text id="git.team1.ourcompany" fill="#979797" font-family="Source Code Pro" font-size="12px" font-weight="700" text-anchor="middle" style="fill:#404040"><tspan id="tspan10295" x="267.5" y="36" fill="#f0f0f0" style="fill:#404040">git.team1.ourcompany.com</tspan></text>
 </g>
</svg>
